X: 2130
T: Ülfetin Geçti Efendim Arası
C: İsmet Ağa
O: Turkey
F: http://compmusic.upf.edu/node/140
N: suzidil--sarki--agiraksak--ulfetin_gecti--ismet_aga
N: makam= suzidil
N: form= sarki
N: usul= agiraksak = 9/4
M: 9/4
L: 1/16
K: C ^1/4f ^g ^d 
Q: 1/4=78
%%MIDI tuningsystem comma53
e3g =f2e2 d2c2 B2{c}A2 G2A2 BcBA A2AB c2d2 e2f2  | 
w:  ARANAĞME  | 
g2a4g=f e3c' bc'ba g3a gffe {f}e4 ABcd e2ed  | 
w:   | 
=d2a4=g=f e4 g4 gffe eddc Bcde dcBA B4  | 
w:   | 
G2A4G=F E3e dcBA G2GA GFFE {F}E4 ABcd e4  | 
w:   | 
e3g =f2e2 d2c2 B2{c}A2 G2A2 BcBA A2AB c2d2 e2f2  | 
w:  ARANAĞME  | 
g2a4g=f e3c' bc'ba g3a gffe {f}e4 ABcd e2ed  | 
w:   | 
=d2a4=g=f e4 g4 gffe eddc Bcde dcBA B4  | 
w:   | 
G2A4G=F E3e dcBA G2GA GFFE {F}E4 ABcd e4  | 
w:   | 
e8 =f2{g}fe f2ga g2f4e2 efed e8  | \
w:  Ül fe *  *  *  *  *  *  tin  *  *  geç  | 
e2=f2 e2=d2 d2e2 d2c2 d3f e2d2 dccB BA2G A4  | 
w:  ti  *  *  *  e *  *  *  fen *  *  *  dim   | 
z2e4=f2 g4 a2b2 g2gf e4 b2{c'}ba a2{b}ag g2{a}gf  | \
w:  a  *  *  *  *  *  *  *  *  a *  *  *  ra  | 
=f2{g}fe d2e2 d2e2 {f}d2c2 efga a2gf gfed e4 Ace2  | 
w:  sı  *  *  *  *  *  *  *  *  *  *  a *  *  *  *  *  *  man   *  *  *  *  SAZ  | 
e2=f2 e2=d2 d2e2 d2{e}c2 d2e2 f2=g2 agfe d2e2 .d4  | \
w:  Bir  *  *  *  gün  *  *  *  *  o *  *  *  lur   | 
=d2cd e2dc c2Bc d2cB B2c2 B2A2 BAGA B6.d2  | 
w:  ge *  *  *  *  *  lir  *  *  *  *  *  el *  *  *  bet   | 
=d2{e}dc c2{d}cB B2{c}BA A2{B}AG G2{A}G=F F2{G}FE G2A2 G2{A}GF F2{G}FE  | 
w:  sı  *  *  *  *  *  *  *  *  *  *  *  *  *  *  *  *  *  *  *  *  *  *  *  sı *  ra  | 
=F2{G}FE D2E2 D2E2 D2C2 EFGA A2GF GFED E4 Ace2  | 
w:  sı  *  *  *  *  *  *  *  *  *  a *  *  *  *  *  *  man   *  *  *  *  SAZ  | 
e2=f2 e2=d2 d2e2 d2{e}c2 d2e2 f2=g2 agfe d2e2 .d4  | \
w:  Bir  *  *  *  gün  *  *  *  *  o *  *  *  lur   | 
=d2cd e2dc c2Bc d2cB B2c2 B2A2 BAGA B6.d2  | 
w:  ge *  *  *  *  *  lir  *  *  *  *  *  el *  *  *  bet   | 
=d2{e}dc c2{d}cB B2{c}BA A2{B}AG G2{A}G=F F2{G}FE G2A2 G2{A}GF F2{G}FE  | 
w:  sı  *  *  *  *  *  *  *  *  *  *  *  *  *  *  *  *  *  *  *  *  *  *  *  sı *  ra  | 
=F2{G}FE D2E2 D2E2 D2C2 EFGA A2GF GFED E4 de=fg  | 
w:  sı  *  *  *  *  *  *  *  *  *  a *  *  *  *  *  *  man   *  *  *  *  SAZ  | 
a3/2g/ab ag=fg a2a4b2 c'2{=d'}c'b a2b2 g4 a8  | \
w:  *  *  *  *  *  *  *  *  *  Söy le nil *  *  *  *  *  mez   | 
z2=f2 e2{f}d2 c2B2 c2d2 e2f2 g2a2 gfed e8  | 
w:  şim *  *  *  di  *  *  *  ar *  *  *  tık   | 
z2e4=f2 g4 a2b2 g2gf e4 b2{c'}ba a2{b}ag g2{a}gf  | \
w:  o  *  *  *  *  *  *  *  *  o *  *  *  ra  | 
=f2{g}fe d2e2 d2e2 d2.c2 efga a2gf gfed e4 Ace2  | 
w:  sı  *  *  *  *  *  *  *  *  *  a *  *  *  *  *  *  man   *  *  *  *  SAZ  | 
e2=f2 e2=d2 d2e2 d2{e}c2 d2e2 f2=g2 agfe d2e2 .d4  | \
w:  Bir  *  *  *  gün  *  *  *  *  o *  *  *  lur   | 
=d2cd e2dc c2Bc d2cB B2c2 B2A2 BAGA B6.d2  | 
w:  ge *  *  *  *  *  lir  *  *  *  *  *  el *  *  *  bet   | 
=d2{e}dc c2{d}cB B2{c}BA A2{B}AG G2{A}G=F F2{G}FE G2A2 G2{A}GF F2{G}FE  | 
w:  sı  *  *  *  *  *  *  *  *  *  *  *  *  *  *  *  *  *  *  *  *  *  *  *  sı *  ra  | 
=F2{G}FE D2E2 D2E2 D2C2 EFGA A2GF GFED E4 Ace2  | 
w:  sı  *  *  *  *  *  *  *  *  *  a *  *  *  *  *  *  man   *  *  *  *  SAZ  | 
e2=f2 e2=d2 d2e2 d2{e}c2 d2e2 f2=g2 agfe d2e2 .d4  | \
w:  Bir  *  *  *  gün  *  *  *  *  o *  *  *  lur   | 
=d2cd e2dc c2Bc d2cB B2c2 B2A2 BAGA B6.d2  | 
w:  ge *  *  *  *  *  lir  *  *  *  *  *  el *  *  *  bet   | 
=d2{e}dc c2{d}cB B2{c}BA A2{B}AG G2{A}G=F F2{G}FE G2A2 G2{A}GF F2{G}FE  | 
w:  sı  *  *  *  *  *  *  *  *  *  *  *  *  *  *  *  *  *  *  *  *  *  *  *  sı *  ra  | 
=F2{G}FE D2E2 D2E2 D2C2 EFGA A2GF GFED E4 z4  | 
w:  sı  *  KARAR *  *  *  *  *  *  *  a *  *  *  *  *  *  man    | 
|


